build/assets/img/icons/like.svg

<svg width="25" height="26" viewBox="0 0 25 26" fill="none" xmlns="http://www.w3.org/2000/svg">
<path d="M7.16683 24.6667V11.8334M1.3335 14.1667V22.3334C1.3335 23.622 2.37816 24.6667 3.66683 24.6667H19.3308C21.0583 24.6667 22.5274 23.4063 22.7901 21.6989L24.0465 13.5322C24.3727 11.4121 22.7323 9.50004 20.5872 9.50004H16.5002C15.8558 9.50004 15.3335 8.97771 15.3335 8.33337V4.21019C15.3335 2.62137 14.0455 1.33337 12.4567 1.33337C12.0777 1.33337 11.7343 1.55655 11.5804 1.90285L7.47476 11.1405C7.28751 11.5619 6.8697 11.8334 6.40864 11.8334H3.66683C2.37817 11.8334 1.3335 12.878 1.3335 14.1667Z" stroke="white" stroke-width="1.5" stroke-linecap="round" stroke-linejoin="round"/>
</svg>

<svg width="25" height="26" fill="none" xmlns="http://www.w3.org/2000/svg"><path d="M7.167 24.667V11.833m-5.833 2.334v8.166a2.333 2.333 0 002.333 2.334H19.33a3.5 3.5 0 003.46-2.968l1.256-8.167a3.5 3.5 0 00-3.46-4.032H16.5a1.167 1.167 0 01-1.166-1.167V4.21a2.877 2.877 0 00-2.877-2.877.959.959 0 00-.877.57L7.475 11.14a1.167 1.167 0 01-1.066.693H3.667a2.333 2.333 0 00-2.333 2.334z" stroke="#fff" stroke-width="1.5" stroke-linecap="round" stroke-linejoin="round"/></svg>
